X: 4306
T: FACE ME UP
%R: hornpipe, reel
B: James Kerr "Merry Melodies" v.4 p.32 #306
Z: 2016 John Chambers <jc:trillian.mit.edu>
M: C|
L: 1/8
K: F
|:\
c2f2 d2f2 | (cd)cB AGF2 | ABcd efga |[1 (g^f)ga g4 :|[2 (gf)ga f4 |:\
bagb agfa |
gfeg f2a2 | g^fga g=fed | (c=B)cd (c_B)AB |\
c2f2 d2f2 | (cd)cB ABc2 | defd efge | f2a2 f2z2 :|

%%sep 1 1 500
%%sep 1 1 500

